X: 20292
Q: "Slow, with expression."
M: C
L: 1/8
K: E
(EF) |\
(BA)(GF) (AG)(FE) | (GF)(ED) E2z |]
(F>G)(FG) (BA)(GF) |\
{GBd}g3f (fe) (d/f/e/c/) | B2 (A/G/B/A/) G3B |\
c2d2 ~e2(Bg) | (gf)(ed) e3B |\
c2d2 e>B (E/G/B) | (BA)(GF) E2z |]


